images/about_icon-3.svg

<svg width="46" height="46" viewBox="0 0 46 46" fill="none" xmlns="http://www.w3.org/2000/svg">
<rect opacity="0.1" width="46" height="46" rx="5" fill="#FE753F"/>
<path fill-rule="evenodd" clip-rule="evenodd" d="M29.3333 31.3333C29.5177 31.3333 29.6667 31.4827 29.6667 31.6667C29.6667 31.8507 29.5177 32 29.3333 32H28.3333C28.149 32 28 31.8507 28 31.6667C28 31.4827 28.149 31.3333 28.3333 31.3333H29.3333ZM30 29H30.6667C30.851 29 31 29.1493 31 29.3333C31 29.5173 30.851 29.6667 30.6667 29.6667H30C29.8157 29.6667 29.6667 29.5173 29.6667 29.3333C29.6667 29.1493 29.8157 29 30 29ZM27 30C27 29.816 27.149 29.6667 27.3333 29.6667H28C28.1843 29.6667 28.3333 29.816 28.3333 30C28.3333 30.184 28.1843 30.3333 28 30.3333H27.3333C27.149 30.3333 27 30.184 27 30ZM26.3333 29H25.6667C25.4823 29 25.3333 28.8507 25.3333 28.6667C25.3333 28.4827 25.4823 28.3333 25.6667 28.3333H26.3333C26.5177 28.3333 26.6667 28.4827 26.6667 28.6667C26.6667 28.8507 26.5177 29 26.3333 29ZM25 32H24.3333C24.149 32 24 31.8507 24 31.6667C24 31.4827 24.149 31.3333 24.3333 31.3333H25C25.1843 31.3333 25.3333 31.4827 25.3333 31.6667C25.3333 31.8507 25.1843 32 25 32ZM23.3333 29.6667C23.3333 29.4827 23.4823 29.3333 23.6667 29.3333H24.3333C24.5177 29.3333 24.6667 29.4827 24.6667 29.6667C24.6667 29.8507 24.5177 30 24.3333 30H23.6667C23.4823 30 23.3333 29.8507 23.3333 29.6667ZM22 28.6667H21C20.8157 28.6667 20.6667 28.5173 20.6667 28.3333C20.6667 28.1493 20.8157 28 21 28H22C22.1843 28 22.3333 28.1493 22.3333 28.3333C22.3333 28.5173 22.1843 28.6667 22 28.6667ZM22 30.6667H21.3333C21.149 30.6667 21 30.5173 21 30.3333C21 30.1493 21.149 30 21.3333 30H22C22.1843 30 22.3333 30.1493 22.3333 30.3333C22.3333 30.5173 22.1843 30.6667 22 30.6667ZM20.3333 32H19.3333C19.149 32 19 31.8507 19 31.6667C19 31.4827 19.149 31.3333 19.3333 31.3333H20.3333C20.5177 31.3333 20.6667 31.4827 20.6667 31.6667C20.6667 31.8507 20.5177 32 20.3333 32ZM18 30C18 29.816 18.149 29.6667 18.3333 29.6667H19C19.1843 29.6667 19.3333 29.816 19.3333 30C19.3333 30.184 19.1843 30.3333 19 30.3333H18.3333C18.149 30.3333 18 30.184 18 30ZM17.3333 29H16.6667C16.4823 29 16.3333 28.8507 16.3333 28.6667C16.3333 28.4827 16.4823 28.3333 16.6667 28.3333H17.3333C17.5177 28.3333 17.6667 28.4827 17.6667 28.6667C17.6667 28.8507 17.5177 29 17.3333 29ZM17 31.6667H16.3333C16.149 31.6667 16 31.5173 16 31.3333C16 31.1493 16.149 31 16.3333 31H17C17.1843 31 17.3333 31.1493 17.3333 31.3333C17.3333 31.5173 17.1843 31.6667 17 31.6667ZM15.3333 30.3333H14.6667C14.4823 30.3333 14.3333 30.184 14.3333 30C14.3333 29.816 14.4823 29.6667 14.6667 29.6667H15.3333C15.5177 29.6667 15.6667 29.816 15.6667 30C15.6667 30.184 15.5177 30.3333 15.3333 30.3333ZM29.5077 16.9913C31.4483 16.8993 33 15.2963 33 13.3333V13H32.6667C30.6843 13 29.0687 14.5823 29.006 16.5493C28.6637 17.0013 28.4303 17.6127 28.246 18.1927C28.0927 17.318 27.8943 16.493 27.6437 15.7703C27.8563 14.993 28.291 14.175 28.5667 13.9047C28.6983 13.7757 28.7003 13.5647 28.5713 13.4333C28.4417 13.3013 28.2307 13.2997 28.1 13.4287C27.8197 13.7033 27.5043 14.2487 27.2607 14.84C27.0597 14.4253 26.8353 14.0643 26.583 13.779C26.4617 13.6413 26.2503 13.6287 26.1127 13.7503C25.9747 13.8723 25.9617 14.083 26.0837 14.221C26.5007 14.6923 26.8373 15.4113 27.1057 16.2763C26.8013 16.025 26.4573 15.7953 26.1007 15.6823C25.9243 15.6257 25.738 15.724 25.6823 15.8993C25.6267 16.075 25.724 16.2623 25.8993 16.3177C26.4403 16.489 27.045 17.1097 27.3693 17.443L27.4223 17.4963C27.6057 18.3523 27.7403 19.2883 27.8313 20.2413C27.676 20.107 27.5137 19.9787 27.357 19.8563L27.3317 19.8367C27.3067 18.2627 26.0577 16.9567 24.465 16.888L24.132 16.8737L24.1177 17.2067C24.048 18.8203 25.274 20.192 26.8707 20.3223L26.9467 20.382C27.317 20.6713 27.7693 21.027 27.9193 21.353C27.997 22.608 28.005 23.8453 27.9593 24.9207C27.7513 24.7373 27.5297 24.5557 27.296 24.377C27.0527 23.476 26.49 22.7117 25.6937 22.2177C24.8617 21.7013 23.8773 21.541 22.9237 21.7643L22.5993 21.8403L22.6753 22.165C22.899 23.119 23.48 23.929 24.3123 24.4447C24.8993 24.8093 25.5623 24.9967 26.237 24.9967C26.4633 24.9967 26.6907 24.9697 26.9173 24.927C27.2833 25.2083 27.6153 25.4957 27.9083 25.7843C27.8663 26.3317 27.8083 26.8123 27.7377 27.2027C27.3977 27.0727 27.0357 27 26.6667 27C26.26 27 25.894 27.0627 25.5583 27.191C25.239 26.2867 24.3643 25.6667 23.3333 25.6667C22.6217 25.6667 22.0463 26.1153 21.7663 26.3827C21.6457 26.4983 21.4657 26.5267 21.319 26.4533C21.1397 26.3637 20.9387 26.3277 20.734 26.346C20.259 26.391 19.8123 26.5473 19.463 26.7817C19.46 26.7757 19.4563 26.7707 19.453 26.765C19.6243 25.718 19.7117 24.2697 19.6833 22.701C19.8353 22.393 20.27 22.0543 20.6273 21.7777L20.7493 21.6827C22.3457 21.553 23.5727 20.181 23.5033 18.5673L23.489 18.2343L23.156 18.2487C22.3547 18.283 21.6153 18.627 21.074 19.217C20.5727 19.7633 20.2997 20.4607 20.2887 21.1963L20.2193 21.2503C20.0307 21.3963 19.833 21.5503 19.6503 21.7143C19.618 21.0467 19.565 20.3697 19.488 19.702C19.577 19.4813 19.6593 19.2023 19.7513 18.8817C19.9327 18.251 20.157 17.481 20.508 16.9913C22.4487 16.899 24 15.2963 24 13.3333V13H23.6667C21.6843 13 20.0683 14.5823 20.006 16.5497C19.6687 16.9967 19.4423 17.599 19.2657 18.1723C19.1093 17.301 18.9057 16.4803 18.6497 15.7583C18.863 14.9767 19.287 14.179 19.5667 13.9047C19.6983 13.7757 19.7003 13.5647 19.5713 13.4333C19.4417 13.3013 19.2307 13.2997 19.1 13.4287C18.821 13.702 18.507 14.2453 18.2647 14.834C18.0623 14.4233 17.836 14.0653 17.583 13.779C17.4617 13.6413 17.2503 13.6287 17.1127 13.7503C16.9747 13.8723 16.9617 14.083 17.0837 14.221C17.4847 14.674 17.835 15.3773 18.1247 16.2857C17.8127 16.031 17.4587 15.7957 17.1007 15.6823C16.9247 15.6257 16.738 15.724 16.6823 15.8993C16.6267 16.075 16.724 16.2623 16.8993 16.3177C17.4547 16.4937 18.0783 17.1273 18.4133 17.468L18.449 17.5037C18.6233 18.292 18.763 19.1817 18.861 20.1617C18.8647 20.1967 18.8673 20.2323 18.8707 20.2673C18.717 20.1357 18.5563 20.01 18.4013 19.89L18.3317 19.836C18.3063 18.2623 17.0573 16.9567 15.465 16.888L15.132 16.8737L15.1177 17.2067C15.048 18.8207 16.2747 20.1923 17.8713 20.3223L17.9933 20.4173C18.3673 20.7063 18.826 21.063 18.9567 21.382C18.9817 21.8013 18.9983 22.223 19.007 22.641C19.005 22.668 19.0047 22.694 19.0087 22.72C19.0317 23.9307 18.9877 25.0997 18.8787 26.051C18.551 25.796 18.15 25.6667 17.6667 25.6667C16.4003 25.6667 15.486 26.4817 15.3507 27.6853C14.045 27.8403 13.0253 28.9453 13.003 30.2887C13.001 30.3033 13 30.3183 13 30.3333V32.6667C13 32.8507 13.149 33 13.3333 33H32.6667C32.851 33 33 32.8507 33 32.6667V30.3333C33 30.3183 32.999 30.3033 32.997 30.2887C32.9727 28.8387 31.787 27.6667 30.3333 27.6667C29.8977 27.6667 29.4653 27.7747 29.0827 27.979C29.0063 28.0203 28.9103 28.007 28.8557 27.9487C28.7043 27.7873 28.5353 27.646 28.3547 27.5233C28.695 25.9053 28.8037 22.6943 28.463 19.7033C28.5507 19.487 28.6337 19.2137 28.7273 18.8997C28.9167 18.2633 29.1513 17.486 29.5077 16.9913Z" fill="#FE753F"/>
</svg>

<svg width="46" height="46" fill="none" xmlns="http://www.w3.org/2000/svg"><rect opacity=".1" width="46" height="46" rx="5" fill="#FE753F"/><path fill-rule="evenodd" clip-rule="evenodd" d="M29.333 31.333a.333.333 0 110 .667h-1a.333.333 0 110-.667h1zM30 29h.667a.333.333 0 110 .667H30A.333.333 0 1130 29zm-3 1c0-.184.149-.333.333-.333H28a.333.333 0 110 .666h-.667A.333.333 0 0127 30zm-.667-1h-.666a.333.333 0 110-.667h.666a.333.333 0 110 .667zM25 32h-.667a.333.333 0 110-.667H25A.333.333 0 1125 32zm-1.667-2.333c0-.184.15-.334.334-.334h.666a.333.333 0 110 .667h-.666a.333.333 0 01-.334-.333zm-1.333-1h-1A.333.333 0 1121 28h1a.333.333 0 110 .667zm0 2h-.667a.333.333 0 110-.667H22a.333.333 0 110 .667zM20.333 32h-1a.333.333 0 110-.667h1a.333.333 0 110 .667zM18 30c0-.184.149-.333.333-.333H19a.333.333 0 110 .666h-.667A.333.333 0 0118 30zm-.667-1h-.666a.333.333 0 110-.667h.666a.333.333 0 110 .667zM17 31.667h-.667a.333.333 0 110-.667H17a.333.333 0 110 .667zm-1.667-1.334h-.666a.333.333 0 110-.666h.666a.333.333 0 110 .666zm14.175-13.342A3.668 3.668 0 0033 13.333V13h-.333a3.668 3.668 0 00-3.661 3.55c-.342.451-.576 1.063-.76 1.643-.153-.875-.352-1.7-.602-2.423.212-.777.647-1.595.923-1.865a.333.333 0 10-.467-.476c-.28.274-.596.82-.84 1.411a4.69 4.69 0 00-.677-1.061.334.334 0 00-.5.442c.418.471.754 1.19 1.023 2.055-.305-.251-.649-.48-1.005-.594a.333.333 0 10-.201.635c.54.172 1.145.793 1.47 1.126l.052.053a24.3 24.3 0 01.41 2.745 12.291 12.291 0 00-.475-.385l-.025-.02a3.001 3.001 0 00-2.867-2.948l-.333-.014-.014.333a3.001 3.001 0 002.753 3.115l.076.06c.37.29.822.645.972.971.078 1.255.086 2.492.04 3.568-.208-.184-.43-.365-.663-.544a3.639 3.639 0 00-1.602-2.16 3.644 3.644 0 00-2.77-.453l-.325.076.076.325a3.641 3.641 0 001.637 2.28c.587.364 1.25.552 1.925.552.226 0 .454-.027.68-.07.366.281.698.569.991.857-.042.548-.1 1.028-.17 1.419A3 3 0 0026.667 27c-.407 0-.773.063-1.109.191-.319-.904-1.194-1.524-2.225-1.524-.711 0-1.287.448-1.567.716a.394.394 0 01-.447.07c-.18-.09-.38-.125-.585-.107a2.775 2.775 0 00-1.271.436l-.01-.017c.171-1.047.259-2.495.23-4.064.152-.308.587-.647.944-.923l.122-.095a3.002 3.002 0 002.754-3.116l-.014-.333-.333.015a2.98 2.98 0 00-2.082.968 2.974 2.974 0 00-.785 1.98l-.07.053c-.188.146-.386.3-.569.464a30.505 30.505 0 00-.162-2.012c.089-.22.171-.5.263-.82.182-.631.406-1.401.757-1.89A3.668 3.668 0 0024 13.332V13h-.333a3.668 3.668 0 00-3.661 3.55c-.337.447-.564 1.049-.74 1.622a15.512 15.512 0 00-.616-2.414c.213-.781.637-1.579.917-1.853a.333.333 0 10-.467-.476c-.279.273-.593.816-.835 1.405a4.791 4.791 0 00-.682-1.055.334.334 0 00-.5.442c.402.453.752 1.156 1.042 2.065-.312-.255-.666-.49-1.024-.604a.333.333 0 10-.201.635c.555.177 1.178.81 1.513 1.151l.036.036c.174.788.314 1.678.412 2.658l.01.105a12.268 12.268 0 00-.47-.377l-.07-.054a3.002 3.002 0 00-2.866-2.948l-.333-.014-.014.333a3.001 3.001 0 002.753 3.115l.122.095c.374.29.833.646.964.965a32.6 32.6 0 01.052 1.338c.023 1.21-.021 2.38-.13 3.331-.328-.255-.729-.384-1.212-.384-1.267 0-2.181.815-2.316 2.018a2.67 2.67 0 00-2.348 2.604.33.33 0 00-.003.044v2.334c0 .184.149.333.333.333h19.334c.184 0 .333-.15.333-.333v-2.334a.33.33 0 00-.003-.044 2.664 2.664 0 00-3.914-2.31.191.191 0 01-.227-.03 2.984 2.984 0 00-.501-.426c.34-1.618.449-4.829.108-7.82.088-.216.17-.49.264-.803.19-.637.424-1.414.78-1.909z" fill="#FE753F"/></svg>
